X:0013
T:The Duke of Gloucesters Quick March.
M:2/4
L:1/8
Q:1/4=88
I: :: ::
%% D ^F  G  A  B ^c  d  e ^f  g  a
Z:Jack Campin * www.campin.me.uk * 2009
K:D
A/G/|FAd2|cdeg|(fdcd)                   |(e/d/c/B/) A2 |
     FAd2|cdeg| fd          (c/d/e/c/)  | d2        D :|
g   |fdfa|eceg| fdfa                    |(e/d/c/B/) A>g|
     fdfa|eceg|(f/a/)(f/d/) (e/g/)(e/c/)| d2        D :|
<end>
<start>
